svg/food/fried_egg_line.svg

<svg xmlns="http://www.w3.org/2000/svg" width="24" height="24" viewBox="0 0 24 24"><g fill="none" fill-rule="evenodd"><path d="M24,0 L24,24 L0,24 L0,0 L24,0 Z M12.5935,23.2578 L12.5819,23.2595 L12.5109,23.295 L12.4919,23.2987 L12.4767,23.295 L12.4057,23.2595 C12.3958,23.2564 12.387,23.259 12.3821,23.2649 L12.378,23.2758 L12.3609,23.7031 L12.3659,23.7235 L12.3769,23.7357 L12.4805,23.8097 L12.4953,23.8136 L12.5071,23.8097 L12.6107,23.7357 L12.6233,23.7197 L12.6267,23.7031 L12.6096,23.2758 C12.6076,23.2657 12.601,23.2593 12.5935,23.2578 Z M12.8584,23.1453 L12.8445,23.1473 L12.6598,23.2397 L12.6499,23.2499 L12.6472,23.2611 L12.6651,23.6906 L12.6699,23.7034 L12.6784,23.7105 L12.8793,23.8032 C12.8914,23.8069 12.9022,23.803 12.9078,23.7952 L12.9118,23.7812 L12.8777,23.1665 C12.8753,23.1546 12.8674,23.147 12.8584,23.1453 Z M12.143,23.1473 C12.1332,23.1424 12.1222,23.1453 12.1156,23.1526 L12.1099,23.1665 L12.0758,23.7812 C12.0751,23.7927 12.0828,23.8019 12.0926,23.8046 L12.1083,23.8032 L12.3092,23.7105 L12.3186,23.7024 L12.3225,23.6906 L12.3404,23.2611 L12.3372,23.2485 L12.3278,23.2397 L12.143,23.1473 Z"/><path fill="#09244B" d="M4,11.9996 C4,9.30558 5.90213,6.78305 8.44535,5.28394 C11.029,3.76098 13.7857,3.55813 15.3904,4.79226 C15.8623,5.15523 16.123,5.75226 16.336,6.6424 C16.3875,6.85766 16.4338,7.07784 16.4815,7.30879 L16.4973,7.38492 L16.4973,7.38503 C16.5394,7.58872 16.5834,7.80216 16.631,8.01026 C16.7365,8.47218 16.8747,8.98218 17.1045,9.44456 C17.4501,10.1401 17.9454,10.7296 18.3759,11.2304 L18.4931,11.3665 C18.8983,11.8368 19.2465,12.2409 19.5229,12.6906 C19.8111,13.1594 19.9979,13.6455 20.0296,14.2262 C20.0617,14.8146 19.9385,15.5757 19.4862,16.5934 C18.1957,19.497 14.4808,20.6316 10.7543,19.7406 C7.09177,18.8648 4,16.1443 4,11.9996 Z M16.6096,3.20689 C14.0478,1.23666 10.3044,1.86651 7.42975,3.56099 C4.5146,5.27933 2,8.35898 2,11.9996 C2,17.3549 6.03722,20.6691 10.2892,21.6857 C14.4772,22.6871 19.4623,21.5717 21.3138,17.4057 C21.8615,16.1734 22.0799,15.0944 22.0266,14.1172 C21.9728,13.1322 21.6471,12.3271 21.2268,11.6433 C20.8611,11.0483 20.4061,10.5215 20.0173,10.0713 L20.0173,10.0713 L19.8926,9.92667 C19.4543,9.41684 19.1164,8.99888 18.8955,8.5545 C18.7745,8.31095 18.6778,7.98954 18.5807,7.56478 C18.5382,7.37849 18.4985,7.18658 18.4559,6.98008 L18.4559,6.98 L18.4401,6.90359 C18.3922,6.67235 18.3405,6.42531 18.2811,6.17709 C18.0506,5.21331 17.6621,4.0163 16.6096,3.20689 Z M10,11.9998 C10,10.8952 10.8954,9.99978 12,9.99978 C13.1046,9.99978 14,10.8952 14,11.9998 C14,13.1043 13.1046,13.9998 12,13.9998 C10.8954,13.9998 10,13.1043 10,11.9998 Z M12,7.99978 C9.79086,7.99978 8,9.79064 8,11.9998 C8,14.2089 9.79086,15.9998 12,15.9998 C14.2091,15.9998 16,14.2089 16,11.9998 C16,9.79064 14.2091,7.99978 12,7.99978 Z"/></g></svg>

<svg xmlns="http://www.w3.org/2000/svg" width="24" height="24"><g fill="none" fill-rule="evenodd"><path d="M24 0v24H0V0zM12.594 23.258l-.012.002-.071.035-.02.004-.014-.004-.071-.036c-.01-.003-.019 0-.024.006l-.004.01-.017.428.005.02.01.013.104.074.015.004.012-.004.104-.074.012-.016.004-.017-.017-.427c-.002-.01-.009-.017-.016-.018m.264-.113-.014.002-.184.093-.01.01-.003.011.018.43.005.012.008.008.201.092c.012.004.023 0 .029-.008l.004-.014-.034-.614c-.003-.012-.01-.02-.02-.022m-.715.002a.023.023 0 0 0-.027.006l-.006.014-.034.614c0 .012.007.02.017.024l.015-.002.201-.093.01-.008.003-.011.018-.43-.003-.012-.01-.01z"/><path fill="#09244B" d="M4 12c0-2.694 1.902-5.217 4.445-6.716 2.584-1.523 5.34-1.726 6.945-.492.472.363.733.96.946 1.85.052.216.098.436.146.667l.015.076c.042.204.086.417.134.625.105.462.244.972.474 1.435.345.695.84 1.285 1.27 1.785l.118.136c.405.47.754.875 1.03 1.325.288.468.475.954.507 1.535.032.589-.091 1.35-.544 2.367-1.29 2.904-5.005 4.039-8.732 3.148C7.092 18.865 4 16.144 4 12m12.61-8.793c-2.562-1.97-6.306-1.34-9.18.354C4.515 5.279 2 8.359 2 12c0 5.355 4.037 8.67 8.29 9.686 4.187 1.001 9.172-.114 11.024-4.28.547-1.233.766-2.312.713-3.289-.054-.985-.38-1.79-.8-2.474-.366-.595-.82-1.122-1.21-1.572l-.124-.144c-.439-.51-.777-.928-.998-1.372-.12-.244-.217-.565-.314-.99a28.897 28.897 0 0 1-.125-.585l-.016-.076c-.048-.232-.1-.479-.159-.727-.23-.964-.619-2.16-1.671-2.97M10 12a2 2 0 1 1 4 0 2 2 0 0 1-4 0m2-4a4 4 0 1 0 0 8 4 4 0 0 0 0-8"/></g></svg>
